src/assets/fleet-icons/loading.svg

<svg width="20" height="20" viewBox="0 0 20 20" fill="none" xmlns="http://www.w3.org/2000/svg">
<path d="M10 3.5V8.43104M10 8.43104L7.98277 6.18966M10 8.43104L12.0173 6.18966M3.5 11.569V13.8103C3.5 15.2958 4.7042 16.5 6.18966 16.5H13.8104C15.2958 16.5 16.5 15.2958 16.5 13.8103V11.569M3.5 11.569V7.08619C3.5 5.83291 4.35718 4.77984 5.51725 4.48126M3.5 11.569H7.98277V12.0172C7.98277 13.0075 8.78557 13.8103 9.77588 13.8103H10.2242C11.2145 13.8103 12.0173 13.0075 12.0173 12.0172V11.569H16.5M16.5 11.569V7.08619C16.5 5.83291 15.6429 4.77984 14.4828 4.48126" stroke="currentColor" stroke-linecap="round" stroke-linejoin="round"/>
</svg>

<svg width="20" height="20" fill="none" xmlns="http://www.w3.org/2000/svg">
    <path
        d="M10 3.5v4.931m0 0L7.983 6.19M10 8.43l2.017-2.241M3.5 11.569v2.241a2.69 2.69 0 0 0 2.69 2.69h7.62a2.69 2.69 0 0 0 2.69-2.69v-2.24m-13 0V7.086a2.69 2.69 0 0 1 2.017-2.605M3.5 11.57h4.483v.448c0 .99.803 1.793 1.793 1.793h.448c.99 0 1.793-.803 1.793-1.793v-.448H16.5m0 0V7.086a2.69 2.69 0 0 0-2.017-2.605"
        stroke="currentColor" stroke-linecap="round" stroke-linejoin="round" />
</svg>
